svgs/sharp-light/square-z.svg

<svg xmlns="http://www.w3.org/2000/svg" viewBox="0 0 448 512"><!--! Font Awesome Pro 6.4.2 by @fontawesome - https://fontawesome.com License - https://fontawesome.com/license (Commercial License) Copyright 2023 Fonticons, Inc. --><path d="M32 64V448H416V64H32zM0 32H32 416h32V64 448v32H416 32 0V448 64 32zm304 96h16v21.1l-3 4.2L175.1 352H304h16v32H304 144 128V362.9l3-4.2L272.9 160H144 128V128h16H304z"/></svg>

<svg xmlns="http://www.w3.org/2000/svg" viewBox="0 0 448 512"><!--! Font Awesome Pro 6.6.0 by @fontawesome - https://fontawesome.com License - https://fontawesome.com/license (Commercial License) Copyright 2024 Fonticons, Inc. --><path d="M32 64l0 384 384 0 0-384L32 64zM0 32l32 0 384 0 32 0 0 32 0 384 0 32-32 0L32 480 0 480l0-32L0 64 0 32zm304 96l16 0 0 21.1-3 4.2L175.1 352 304 352l16 0 0 32-16 0-160 0-16 0 0-21.1 3-4.2L272.9 160 144 160l-16 0 0-32 16 0 160 0z"/></svg>
